dist/assets/uwm-icons/icon_walk.svg

<?xml version="1.0" encoding="UTF-8"?>
<svg width="10px" height="18px" viewBox="0 0 10 18" version="1.1" xmlns="http://www.w3.org/2000/svg" xmlns:xlink="http://www.w3.org/1999/xlink">
    <!-- Generator: Sketch 48.2 (47327) - http://www.bohemiancoding.com/sketch -->
    <title>icon_walk</title>
    <desc>Created with Sketch.</desc>
    <defs></defs>
    <g id="Icons" stroke="none" stroke-width="1" fill="none" fill-rule="evenodd">
        <g id="icon_walk" transform="translate(-7.000000, -3.000000)">
            <g id="Group-6">
                <rect id="Rectangle" x="0" y="0" width="24" height="24"></rect>
                <g id="Group-7" transform="translate(7.000000, 3.000000)" fill="#272727">
                    <path d="M6.50984806,13.8690922 L5.07404402,11.5556954 L4.06286373,14.2903427 L2.06281388,17.2377042 C1.7367892,17.773145 1.35606723,18.1118861 0.817370823,17.9660151 C0.278674418,17.8211884 -0.0948505446,17.2432744 0.153806246,16.7273295 L2.19739802,13.4499304 L3.0876685,10.3079582 C3.14056654,10.0193493 2.95416391,9.55423301 2.95416391,9.55423301 C2.77891665,8.90773523 2.89802721,8.52338761 2.89802721,8.52338761 L3.4273675,5.582989 L2.11175357,6.68764028 L1.57161776,8.91922389 C1.48705286,9.38608092 1.22544145,9.73422189 0.777787252,9.7377033 C0.330133059,9.74153285 -0.0372744426,9.35718522 0.00302882888,8.95194914 L0.698620112,6.18005075 C0.784624414,5.63729899 1.10273238,5.45661382 1.10273238,5.45661382 L3.98117763,3.46072166 C5.65484295,2.83824561 6.74483053,3.96100023 6.74483053,3.96100023 L8.14321011,6.66466298 L9.72223471,7.83093522 C10.0608542,8.18395016 10.1043961,8.67900662 9.77225395,8.97980041 C9.48689239,9.23777287 8.94063912,9.06300611 8.66823219,8.79110801 L7.29684141,7.78045478 C7.02623373,7.62309506 6.40405198,6.37118015 6.40405198,6.37118015 L5.98338658,9.01948848 C5.91321571,9.34534843 6.08486446,9.55423301 6.08486446,9.55423301 L8.24144933,12.8977789 L8.84275975,16.7332479 C8.98418105,17.3619905 8.69522099,17.8135293 8.19466875,17.9385119 C7.66676786,18.0708055 7.17341264,17.7640933 7.04350656,17.2610296 L6.50984806,13.8690922 Z" id="Fill-260"></path>
                    <path d="M5.52235578,0.0251494756 C6.42633495,-0.131794896 7.29856771,0.462109704 7.47039518,1.35183751 C7.64222265,2.24194168 7.04856469,3.09064565 6.14418868,3.24759002 C5.24020951,3.4045344 4.36837358,2.81025343 4.19614928,1.92052563 C4.02471864,1.03079782 4.6183766,0.182093847 5.52235578,0.0251494756" id="Fill-261"></path>
                </g>
            </g>
        </g>
    </g>
</svg>

<svg width="10" height="18" xmlns="http://www.w3.org/2000/svg"><g fill="none" fill-rule="evenodd"><path d="M-7-3h24v24H-7z"/><g fill="#272727"><path d="M6.51 13.87l-1.436-2.314-1.011 2.734-2 2.948c-.326.535-.707.874-1.246.728-.538-.145-.912-.723-.663-1.239l2.043-3.277.89-3.142c.054-.289-.133-.754-.133-.754-.175-.646-.056-1.03-.056-1.03l.53-2.941-1.316 1.105-.54 2.231c-.085.467-.347.815-.794.819-.448.004-.815-.38-.775-.786L.699 6.18c.086-.543.404-.723.404-.723L3.98 3.46a2.636 2.636 0 0 1 2.764.5l1.398 2.704 1.58 1.166c.338.353.381.848.05 1.149-.286.258-.832.083-1.105-.189L7.296 7.78c-.27-.158-.893-1.41-.893-1.41l-.42 2.648a.66.66 0 0 0 .1.535l2.157 3.344.602 3.835c.141.629-.148 1.08-.648 1.206a.934.934 0 0 1-1.151-.678l-.534-3.392z"/><path d="M5.522.025C6.426-.132 7.3.462 7.47 1.352a1.614 1.614 0 0 1-1.326 1.896A1.69 1.69 0 0 1 4.196 1.92 1.615 1.615 0 0 1 5.522.025"/></g></g></svg>
